assets/svg/rocket.svg

<svg fill="none" height="184" viewBox="0 0 159 184" width="159" xmlns="http://www.w3.org/2000/svg"><path clip-rule="evenodd" d="m117.644 93.1616c.274-5.1284.275-9.0301.275-10.2157 0-7.1351-.297-14.2702-.892-21.1082-1.189-12.4865-4.162-24.0811-8.919-34.1891-4.602-9.8439-9.6984-16.277-14.061-20.43856-.0569-.05444-.1134-.1082-.1699-.16196l-.0019-.00179c-.0275-.02584-.055-.05201-.0822-.07788l-.0042-.00399c-5.106-4.8336-9.1427-6.469221-10.1417-6.8740061l-.0443-.0179477c-.0843-.0344911-.1418-.058182-.1704-.0724662h-1.7838c-.0303.0151836-.0941.0412324-.1892.0800893-1.7663.7216697-14.3459 5.8613307-24.7837 27.8657107-4.7567 10.108-7.7299 21.7026-8.9189 34.1891-.5948 6.838-.8919 13.9731-.8919 21.1082 0 1.1281.0003 5.2002.2916 10.5588-3.8139 2.7485-15.1566 13.1951-15.1566 34.3331v11.892c0 2.378 1.1891 4.162 3.2704 5.351l.0031.001c.8909.297 1.7817.594 2.6725.594 1.1891 0 2.3785-.595 3.8648-1.487l17.0201-11.862c1.9894 1.611 5.0657 3.577 9.406 5.053-4.5424 6.171-4.8779 14.604-.5612 21.079l12.4864 18.433c.5948.595 1.4866 1.189 2.3785 1.189.8914 0 1.7828-.594 2.6741-1.188l.0016-.001 12.1893-18.432c4.3985-6.873 3.9635-15.524-.8281-21.489 4.1806-1.467 7.1576-3.382 9.0966-4.955l17.894 12.471c1.189.892 2.378 1.189 3.567 1.189.892 0 1.784-.297 2.676-.892 2.081-1.189 3.27-2.973 3.27-5.351v-11.892c0-22.157-12.462-32.5662-15.437-34.6764zm-34.8495-86.78841c.0686.03589.1404.07386.2146.11358l.0004.00021.0181.00979.0185.00986c1.2733.68843 3.3379 1.98655 5.8258 4.21247 2.8398 2.5582 6.2245 6.3603 9.6283 11.9266-4.7333 2.6426-10.0526 4.1111-15.9597 4.1111-5.907 0-11.2263-1.4685-15.9596-4.1111 3.4038-5.566 6.7885-9.3684 9.6282-11.9266 2.4879-2.22592 4.5525-3.52439 5.8259-4.21247.0124-.00655.0245-.0131.0366-.01965l.0003-.00021c.0742-.04006.146-.07804.2147-.11358.0881-.04598.1745-.09023.2539-.12995.0795.03972.1659.08397.254.12995zm-20.4699 24.24831c-4.4595 9.5136-7.4327 20.5135-8.6218 32.1081-.5947 6.5408-.8919 13.6759-.8912 20.5132 0 2.7216.0979 6.8069.3968 11.4113.1976.2638.1979.5564.1979 1.0752 1.1895 15.1617 3.8651 26.1627 7.7299 30.0267l.2972.298.2971.297c.3105.31.538.703.6864 1.134 1.488 1.301 4.3302 3.203 8.8269 4.514-.0867-.867-.1724-1.79-.2519-2.744-.2289-2.434-.3428-4.916-.3428-7.364 0-14.27 3.8648-29.7293 11.8918-29.7293s11.8918 15.4593 11.8918 29.7293c0 2.181-.091 4.39-.2725 6.567-.0965 1.311-.2094 2.597-.3222 3.839 5.3433-1.559 8.352-4.117 9.526-5.304.087-.122.18-.239.285-.345l.297-.297.297-.297c6.838-7.135 8.027-33.2972 8.027-42.8109 0-7.1351-.297-13.9731-.892-20.5135-1.189-11.8918-3.865-22.5945-8.621-32.1081-.461-.9887-.925-1.935-1.392-2.8488-5.4642 3.2226-12.0356 4.9301-18.8245 4.9301-6.7884 0-13.3602-1.7075-18.8245-4.9301-.4665.9138-.9312 1.8601-1.3914 2.8488zm20.2159 115.0545c-.2111 0-1.6221-1.053-3.0613-4.751-1.4898-3.974-2.8847-10.387-2.8847-19.033 0-14.974 4.1839-23.254 5.7973-23.7595 1.6134.5052 5.7973 8.7855 5.7973 23.7595 0 4.756-.2972 9.513-1.1891 13.675 0 .156.0125.322.0307.492-.6223 2.729-1.3703 4.894-2.096 6.474-1.1831 2.393-2.2158 3.143-2.3942 3.143zm-44.5946-17.838v11.892l16.6816-11.706c-4.1059-6.242-6.0405-17.467-6.9512-27.158-4.1543 4.192-9.7304 12.793-9.7304 26.972zm54.7026 27.648-9.8108 14.568-9.8108-14.568c-3.2613-4.447-2.9739-10.372.2711-14.237.3003.935.6264 1.826.9782 2.666 1.8992 4.665 4.4867 7.266 7.4714 7.654.0097.001.0194.003.0291.004l.0129.002.0162.003c.0926.011.186.019.2794.025.0292.002.0578.006.0871.008.1219.007.2446.011.3679.011s.246-.004.3679-.011l.0195-.002c.0172-.001.0344-.003.0516-.005.0051 0 .0102 0 .0153-.001.0937-.007.1878-.014.2808-.026.0089-.001.0176-.002.0263-.003l.018-.003c.0028-.001.0055-.001.0083-.001 3.5233-.455 6.5314-3.986 9.0231-10.354 2.9732 3.865 3.2707 9.811.2975 14.27zm17.5405-27.351 16.946 11.892v-11.892c0-14.27-5.648-22.892-9.811-27.054-1.189 12.784-3.567 21.703-7.135 27.054z" fill="#fff" fill-rule="evenodd"/><g stroke="#fff" stroke-linecap="round" stroke-linejoin="round" stroke-width="7"><path d="m135.243 38.1082v18.2432" opacity=".7"/><path d="m113.351 167.027v12.568" opacity=".7"/><path d="m47.9188 156.432v12.568" opacity=".7"/><path d="m26.5946 70.5405v18.2433" opacity=".7"/><path d="m26.5946 19.4595v18.2432" opacity=".7"/><path d="m3.81079 44.5945v34.4594" opacity=".7"/><path d="m155.216 40.1351v42.1622" opacity=".7"/><path d="m135.243 21.0811v5.6756" opacity=".7"/><path d="m113.351 150v5.676" opacity=".7"/><path d="m26.5946 53.5134v5.6757" opacity=".7"/></g><path clip-rule="evenodd" d="m106.324 62.4323c0 13.0812-10.7023 23.7839-23.7835 23.7839s-23.7839-10.7027-23.7839-23.7839 10.7027-23.7839 23.7839-23.7839 23.7835 10.7027 23.7835 23.7839zm-5.946 0c0-9.8108-8.0267-17.8378-17.8375-17.8378s-17.8378 8.027-17.8378 17.8378 8.027 17.8379 17.8378 17.8379 17.8375-8.0271 17.8375-17.8379z" fill="#fff" fill-rule="evenodd"/><path clip-rule="evenodd" d="m94.4322 62.4325c0 6.5405-5.3513 11.8918-11.8917 11.8918-6.5405 0-11.8918-5.3513-11.8918-11.8918 0-6.5404 5.3513-11.8917 11.8918-11.8917 6.5404 0 11.8917 5.3513 11.8917 11.8917zm-5.9457 0c0-3.2703-2.6757-5.946-5.946-5.946-3.2704 0-5.9461 2.6757-5.9461 5.946 0 3.2704 2.6757 5.9461 5.9461 5.9461 3.2703 0 5.946-2.6757 5.946-5.9461z" fill="#fff" fill-rule="evenodd" opacity=".7"/></svg>

<svg width="159" height="184" viewBox="0 0 159 184" fill="none" xmlns="http://www.w3.org/2000/svg">
<path fill-rule="evenodd" clip-rule="evenodd" d="M117.644 93.1616C117.918 88.0332 117.919 84.1315 117.919 82.9459C117.919 75.8108 117.622 68.6757 117.027 61.8377C115.838 49.3512 112.865 37.7566 108.108 27.6486C103.506 17.8047 98.4096 11.3716 94.047 7.21004C93.9901 7.1556 93.9336 7.10184 93.8771 7.04808L93.8752 7.04629C93.8477 7.02045 93.8202 6.99428 93.793 6.96841L93.7888 6.96442C88.6828 2.13082 84.6461 0.495199 83.6471 0.0904139L83.6028 0.0724662C83.5185 0.0379751 83.461 0.0142842 83.4324 0H81.6486C81.6183 0.0151836 81.5545 0.0412324 81.4594 0.0800893C79.6931 0.801759 67.1135 5.94142 56.6757 27.9458C51.919 38.0538 48.9458 49.6484 47.7568 62.1349C47.162 68.9729 46.8649 76.108 46.8649 83.2431C46.8649 84.3712 46.8652 88.4433 47.1565 93.8019C43.3426 96.5504 31.9999 106.997 31.9999 128.135V140.027C31.9999 142.405 33.189 144.189 35.2703 145.378L35.2734 145.379C36.1643 145.676 37.0551 145.973 37.9459 145.973C39.135 145.973 40.3244 145.378 41.8107 144.486L58.8308 132.624C60.8202 134.235 63.8965 136.201 68.2368 137.677C63.6944 143.848 63.3589 152.281 67.6756 158.756L80.162 177.189C80.7568 177.784 81.6486 178.378 82.5405 178.378C83.4319 178.378 84.3233 177.784 85.2146 177.19L85.2162 177.189L97.4055 158.757C101.804 151.884 101.369 143.233 96.5774 137.268C100.758 135.801 103.735 133.886 105.674 132.313L123.568 144.784C124.757 145.676 125.946 145.973 127.135 145.973C128.027 145.973 128.919 145.676 129.811 145.081C131.892 143.892 133.081 142.108 133.081 139.73V127.838C133.081 105.681 120.619 95.2718 117.644 93.1616ZM82.7945 6.37319C82.8631 6.40908 82.9349 6.44705 83.0091 6.48677L83.0095 6.48698L83.0276 6.49677L83.0461 6.50663C84.3194 7.19506 86.384 8.49318 88.8719 10.7191C91.7117 13.2773 95.0964 17.0794 98.5002 22.6457C93.7669 25.2883 88.4476 26.7568 82.5405 26.7568C76.6335 26.7568 71.3142 25.2883 66.5809 22.6457C69.9847 17.0797 73.3694 13.2773 76.2091 10.7191C78.697 8.49318 80.7616 7.19471 82.035 6.50663C82.0474 6.50008 82.0595 6.49353 82.0716 6.48698L82.0719 6.48677C82.1461 6.44671 82.2179 6.40873 82.2866 6.37319C82.3747 6.32721 82.4611 6.28296 82.5405 6.24324C82.62 6.28296 82.7064 6.32721 82.7945 6.37319ZM62.3246 30.6215C57.8651 40.1351 54.8919 51.135 53.7028 62.7296C53.1081 69.2704 52.8109 76.4055 52.8116 83.2428C52.8116 85.9644 52.9095 90.0497 53.2084 94.6541C53.406 94.9179 53.4063 95.2105 53.4063 95.7293C54.5958 110.891 57.2714 121.892 61.1362 125.756L61.4334 126.054L61.7305 126.351C62.041 126.661 62.2685 127.054 62.4169 127.485C63.9049 128.786 66.7471 130.688 71.2438 131.999C71.1571 131.132 71.0714 130.209 70.9919 129.255C70.763 126.821 70.6491 124.339 70.6491 121.891C70.6491 107.621 74.5139 92.1617 82.5409 92.1617C90.5679 92.1617 94.4327 107.621 94.4327 121.891C94.4327 124.072 94.3417 126.281 94.1602 128.458C94.0637 129.769 93.9508 131.055 93.838 132.297C99.1813 130.738 102.19 128.18 103.364 126.993C103.451 126.871 103.544 126.754 103.649 126.648L103.946 126.351L104.243 126.054C111.081 118.919 112.27 92.7568 112.27 83.2431C112.27 76.108 111.973 69.27 111.378 62.7296C110.189 50.8378 107.513 40.1351 102.757 30.6215C102.296 29.6328 101.832 28.6865 101.365 27.7727C95.9008 30.9953 89.3294 32.7028 82.5405 32.7028C75.7521 32.7028 69.1803 30.9953 63.716 27.7727C63.2495 28.6865 62.7848 29.6328 62.3246 30.6215ZM82.5405 145.676C82.3294 145.676 80.9184 144.623 79.4792 140.925C77.9894 136.951 76.5945 130.538 76.5945 121.892C76.5945 106.918 80.7784 98.638 82.3918 98.1325C84.0052 98.6377 88.1891 106.918 88.1891 121.892C88.1891 126.648 87.8919 131.405 87 135.567C87 135.723 87.0125 135.889 87.0307 136.059C86.4084 138.788 85.6604 140.953 84.9347 142.533C83.7516 144.926 82.7189 145.676 82.5405 145.676ZM37.9459 127.838V139.73L54.6275 128.024C50.5216 121.782 48.587 110.557 47.6763 100.866C43.522 105.058 37.9459 113.659 37.9459 127.838ZM92.6485 155.486L82.8377 170.054L73.0269 155.486C69.7656 151.039 70.053 145.114 73.298 141.249C73.5983 142.184 73.9244 143.075 74.2762 143.915C76.1754 148.58 78.7629 151.181 81.7476 151.569C81.7573 151.57 81.767 151.572 81.7767 151.573L81.7896 151.575C81.795 151.576 81.8004 151.577 81.8058 151.578C81.8984 151.589 81.9918 151.597 82.0852 151.603C82.1144 151.605 82.143 151.609 82.1723 151.611C82.2942 151.618 82.4169 151.622 82.5402 151.622C82.6635 151.622 82.7862 151.618 82.9081 151.611L82.9276 151.609C82.9448 151.608 82.962 151.606 82.9792 151.604C82.9843 151.604 82.9894 151.604 82.9945 151.603C83.0882 151.596 83.1823 151.589 83.2753 151.577C83.2842 151.576 83.2929 151.575 83.3016 151.574C83.3076 151.573 83.3136 151.572 83.3196 151.571C83.3224 151.57 83.3251 151.57 83.3279 151.57C86.8512 151.115 89.8593 147.584 92.351 141.216C95.3242 145.081 95.6217 151.027 92.6485 155.486ZM110.189 128.135L127.135 140.027V128.135C127.135 113.865 121.487 105.243 117.324 101.081C116.135 113.865 113.757 122.784 110.189 128.135Z" fill="white"/>
<path opacity="0.7" d="M135.243 38.1082V56.3514" stroke="white" stroke-width="7" stroke-linecap="round" stroke-linejoin="round"/>
<path opacity="0.7" d="M113.351 167.027V179.595" stroke="white" stroke-width="7" stroke-linecap="round" stroke-linejoin="round"/>
<path opacity="0.7" d="M47.9188 156.432V169" stroke="white" stroke-width="7" stroke-linecap="round" stroke-linejoin="round"/>
<path opacity="0.7" d="M26.5946 70.5405V88.7838" stroke="white" stroke-width="7" stroke-linecap="round" stroke-linejoin="round"/>
<path opacity="0.7" d="M26.5946 19.4595V37.7027" stroke="white" stroke-width="7" stroke-linecap="round" stroke-linejoin="round"/>
<path opacity="0.7" d="M3.81079 44.5945V79.0539" stroke="white" stroke-width="7" stroke-linecap="round" stroke-linejoin="round"/>
<path opacity="0.7" d="M155.216 40.1351V82.2973" stroke="white" stroke-width="7" stroke-linecap="round" stroke-linejoin="round"/>
<path opacity="0.7" d="M135.243 21.0811V26.7567" stroke="white" stroke-width="7" stroke-linecap="round" stroke-linejoin="round"/>
<path opacity="0.7" d="M113.351 150V155.676" stroke="white" stroke-width="7" stroke-linecap="round" stroke-linejoin="round"/>
<path opacity="0.7" d="M26.5946 53.5134V59.1891" stroke="white" stroke-width="7" stroke-linecap="round" stroke-linejoin="round"/>
<path fill-rule="evenodd" clip-rule="evenodd" d="M106.324 62.4323C106.324 75.5135 95.6217 86.2162 82.5405 86.2162C69.4593 86.2162 58.7566 75.5135 58.7566 62.4323C58.7566 49.3511 69.4593 38.6484 82.5405 38.6484C95.6217 38.6484 106.324 49.3511 106.324 62.4323ZM100.378 62.4323C100.378 52.6215 92.3513 44.5945 82.5405 44.5945C72.7297 44.5945 64.7027 52.6215 64.7027 62.4323C64.7027 72.2431 72.7297 80.2702 82.5405 80.2702C92.3513 80.2702 100.378 72.2431 100.378 62.4323Z" fill="white"/>
<path opacity="0.7" fill-rule="evenodd" clip-rule="evenodd" d="M94.4322 62.4325C94.4322 68.973 89.0809 74.3243 82.5405 74.3243C76 74.3243 70.6487 68.973 70.6487 62.4325C70.6487 55.8921 76 50.5408 82.5405 50.5408C89.0809 50.5408 94.4322 55.8921 94.4322 62.4325ZM88.4865 62.4325C88.4865 59.1622 85.8108 56.4865 82.5405 56.4865C79.2701 56.4865 76.5944 59.1622 76.5944 62.4325C76.5944 65.7029 79.2701 68.3786 82.5405 68.3786C85.8108 68.3786 88.4865 65.7029 88.4865 62.4325Z" fill="white"/>
</svg>
